!!!OTL-incipit: LISA GEH TRAG DAS WASSER ANHEIM
!!!ARE: Europa, Mitteleuropa, Deutschland, Kuhlaendchen
!!!SCT: Z0243
!!!YEM: Copyright 1995, estate of Helmut Schaffrath.
**kern	**text
*ICvox	*
*M2/4	*
*k[f#]	*
*G:	*
!LO:TX:a:t=Aus dem Kuhländchen.	!
{16d	Li-
16g	-ſa,
8g	geh
8g	trag
8g	das
=1	=1
4g	Maſ-
8f#	-ſer
8g	an-
=2	=2
4a	-heim,
4r}	.
=3	=3
{16f#	laß
16a	dir
8a	an
8a	Groſchen
8a	.
=4	=4
8a	und
8a	an
8g	Stück
8a	Brud
=5	=5
4b/	gahn,
4r}	.
=6	=6
{8b/	's_is
8g	wohl
8f#	gut
8g	ge-
=7	=7
8b/	-ſchleffe,
8g	.
8f#	's_wird
8g	wohl
=8	=8
8b/	wieder
8g	.
8f#	ſchneide.
8g;}	.
=9	=9
{8gg	Dudl
8ff#	.
8gg	dudl
8ff#	.
=10	=10
8gg	dudl
8ee	.
4dd}	dai,
=11	=11
{8ee	tu-
8dd	-tu
8ee	ru-
8dd	-tu
=12	=12
8ee	tu-
8cc	-tu
4b}	dai,
=13	=13
{8b	du-
8cc	-ne
8dd	rei
8cc	.
=14	=14
4b	du-
4a	-del
=15	=15
2g}	dei.
==	==
!!!AGN: Handwerker - Lied
!!!ONB: ESAC (Essen Associative Code) Database: ZUCCAL
!!!AMT: simple duple
!!!AIN: vox
!!!EED: Helmut Schaffrath
!!!EEV: 1.0
!!!GTL: III. Soldaten-, Jaeger-, Schiffer-, Fuhrmanns- und Handwerks-Lieder.
!!!URL-scan: https://www.digitale-sammlungen.de/de/view/bsb11160571?page=453
!!!ENC: Anna Maria Matuszewska
!!!EEV: 2025/01/29
*-	*-
